; generated by PrusaSlicer 2.2.0+win64 on 2020-08-18 at 11:09:24 UTC

; 

; external perimeters extrusion width = 0.45mm
; perimeters extrusion width = 0.45mm
; infill extrusion width = 0.45mm
; solid infill extrusion width = 0.45mm
; top infill extrusion width = 0.40mm
; support material extrusion width = 0.40mm
; first layer extrusion width = 0.20mm

M73 P0 R31
M73 Q0 S32
M201 X9000 Y9000 Z500 E10000 ; sets maximum accelerations, mm/sec^2
M203 X500 Y500 Z12 E120 ; sets maximum feedrates, mm/sec
M204 P1500 R1500 T1500 ; sets acceleration (P, T) and retract acceleration (R), mm/sec^2
M205 X10.00 Y10.00 Z0.20 E2.50 ; sets the jerk limits, mm/sec
M205 S0 T0 ; sets the minimum extruding and travel feed rate, mm/sec
M107
M190 S85 ; set bed temperature and wait for it to be reached
M104 S230 ; set temperature
G28 ; home all axes
G1 Z5 F5000 ; lift nozzle
M109 S230 ; set temperature and wait for it to be reached
G21 ; set units to millimeters
G90 ; use absolute coordinates
M82 ; use absolute distances for extrusion
G92 E0
; Filament gcode
G1 Z0.100 F8400.000
G1 E-2.00000 F2400.00000
M73 Q0 S32
M73 P0 R31
G92 E0
G1 X138.350 Y138.578 F8400.000
G1 E2.00000 F2400.00000
G1 F1800.000
G1 X138.931 Y138.102 E2.00574
G1 X147.508 Y133.536 E2.08003
G1 X147.983 Y133.363 E2.08390
G1 X148.489 Y133.304 E2.08779
G1 X149.273 Y133.451 E2.09389
G1 X160.809 Y137.977 E2.18864
G1 X161.339 Y138.281 E2.19331
G1 X161.901 Y138.935 E2.19990
G1 X166.325 Y147.182 E2.27145
G1 X166.500 Y147.931 E2.27733
G1 X166.402 Y148.697 E2.28324
G1 X162.044 Y160.755 E2.38126
G1 X161.581 Y161.499 E2.38796
G1 X160.862 Y162.001 E2.39466
G1 X160.019 Y162.178 E2.40125
G1 X139.891 Y162.176 E2.55514
G1 X139.298 Y162.062 E2.55975
G1 X138.756 Y161.789 E2.56439
G1 X138.313 Y161.379 E2.56901
G1 X138.000 Y160.863 E2.57362
G1 X137.821 Y160.005 E2.58032
G1 X137.822 Y139.985 E2.73338
G1 X137.964 Y139.226 E2.73929
G1 X138.319 Y138.629 E2.74460
G1 E0.74460 F2400.00000
G92 E0
G1 X148.486 Y135.482 F8400.000
G1 E2.00000 F2400.00000
G1 F1800.000
G1 X146.059 Y139.686 E2.03711
G1 X146.472 Y139.686 E2.04026
G1 X148.755 Y135.730 E2.07518
G1 X149.065 Y135.909 E2.07791
G1 X146.884 Y139.686 E2.11126
G1 X147.296 Y139.686 E2.11441
G1 X149.374 Y136.087 E2.14618
G1 X149.683 Y136.266 E2.14891
G1 X147.709 Y139.686 E2.17910
G1 X148.121 Y139.686 E2.18225
G1 X149.992 Y136.444 E2.21086
G1 X150.301 Y136.623 E2.21359
G1 X148.533 Y139.686 E2.24063
G1 X148.946 Y139.686 E2.24378
G1 X150.611 Y136.802 E2.26925
G1 X150.920 Y136.980 E2.27198
G1 X149.358 Y139.686 E2.29586
G1 X149.770 Y139.686 E2.29902
G1 X151.229 Y137.159 E2.32133
G1 X151.538 Y137.337 E2.32406
G1 X150.182 Y139.686 E2.34479
G1 X150.595 Y139.686 E2.34794
G1 X151.848 Y137.516 E2.36710
G1 X152.157 Y137.694 E2.36983
G1 X151.007 Y139.686 E2.38741
G1 X151.419 Y139.686 E2.39056
G1 X152.466 Y137.873 E2.40657
G1 X152.775 Y138.051 E2.40930
G1 X151.832 Y139.686 E2.42373
G1 X152.244 Y139.686 E2.42688
G1 X153.085 Y138.230 E2.43973
G1 X153.329 Y138.371 E2.44189
G1 X153.254 Y138.650 E2.44410
G1 X152.610 Y139.766 E2.45395
G1 E0.45395 F2400.00000
G92 E0
G1 X160.653 Y145.831 F8400.000
G1 E2.00000 F2400.00000
G1 F1800.000
G1 X160.314 Y146.418 E2.00519
G1 X160.314 Y147.132 E2.01065
G1 X160.923 Y146.079 E2.01995
G1 X161.232 Y146.257 E2.02268
G1 X160.314 Y147.847 E2.03671
G1 X160.314 Y148.561 E2.04217
G1 X161.541 Y146.436 E2.06093
G1 X161.850 Y146.615 E2.06366
G1 X160.314 Y149.275 E2.08714
G1 X160.314 Y149.989 E2.09260
G1 X162.159 Y146.793 E2.12082
G1 X162.469 Y146.972 E2.12355
G1 X160.314 Y150.703 E2.15649
G1 X160.314 Y151.417 E2.16195
G1 X162.778 Y147.150 E2.19963
G1 X163.087 Y147.329 E2.20236
G1 X160.314 Y152.132 E2.24476
G1 X160.314 Y152.846 E2.25022
G1 X163.396 Y147.507 E2.29735
G1 X163.706 Y147.686 E2.30008
G1 X160.606 Y153.055 E2.34748
G1 X160.963 Y153.151 E2.35030
G1 X164.015 Y147.864 E2.39697
G1 X164.324 Y148.043 E2.39970
G1 X161.278 Y153.318 E2.44627
G1 E0.44627 F2400.00000
G92 E0
G1 X150.000 Y159.321 F8400.000
G1 E2.00000 F2400.00000
G1 F1800.000
G1 X140.679 Y159.321 E2.07127
G1 X140.679 Y140.679 E2.21380
G1 X159.321 Y140.679 E2.35634
G1 X159.321 Y159.321 E2.49887
G1 X150.060 Y159.321 E2.56968
G1 X150.000 Y159.500 F8400.000
G1 F1800.000
G1 X140.500 Y159.500 E2.64231
G1 X140.500 Y140.500 E2.78758
G1 X159.500 Y140.500 E2.93284
G1 X159.500 Y159.500 E3.07811
G1 X150.060 Y159.500 E3.15028
G1 X149.689 Y159.249 F8400.000
G1 E1.15028 F2400.00000
G92 E0
G1 X159.268 Y141.096 F8400.000
G1 E2.00000 F2400.00000
G1 F1800.000
G1 X158.985 Y140.812 E2.00308
G1 X158.731 Y140.812 E2.00504
G1 X159.188 Y141.269 E2.01001
G1 X159.188 Y141.524 E2.01197
G1 X158.476 Y140.812 E2.01971
G1 X158.222 Y140.812 E2.02166
G1 X159.188 Y141.778 E2.03217
G1 X159.188 Y142.032 E2.03412
G1 X157.968 Y140.812 E2.04740
G1 X157.714 Y140.812 E2.04935
G1 X159.188 Y142.286 E2.06539
G1 X159.188 Y142.540 E2.06735
G1 X157.460 Y140.812 E2.08615
G1 X157.206 Y140.812 E2.08811
G1 X159.188 Y142.794 E2.10968
G1 X159.188 Y143.048 E2.11163
G1 X156.952 Y140.812 E2.13597
G1 X156.697 Y140.812 E2.13792
G1 X159.188 Y143.303 E2.16503
G1 X159.188 Y143.557 E2.16698
G1 X156.443 Y140.812 E2.19685
G1 X156.189 Y140.812 E2.19881
G1 X159.188 Y143.811 E2.23144
G1 X159.188 Y144.065 E2.23340
G1 X155.935 Y140.812 E2.26880
G1 X155.681 Y140.812 E2.27076
G1 X159.188 Y144.319 E2.30892
G1 X159.188 Y144.573 E2.31088
G1 X155.427 Y140.812 E2.35181
G1 X155.172 Y140.812 E2.35377
G1 X159.188 Y144.828 E2.39747
G1 X159.188 Y145.082 E2.39943
G1 X154.918 Y140.812 E2.44589
G1 X154.664 Y140.812 E2.44785
G1 X159.188 Y145.336 E2.49708
G1 X159.188 Y145.590 E2.49904
G1 X154.410 Y140.812 E2.55104
G1 X154.156 Y140.812 E2.55299
G1 X159.188 Y145.844 E2.60776
G1 X159.188 Y146.098 E2.60971
G1 X153.902 Y140.812 E2.66724
G1 X153.647 Y140.812 E2.66920
G1 X159.188 Y146.353 E2.72950
G1 X159.188 Y146.607 E2.73145
G1 X153.393 Y140.812 E2.79452
G1 X153.139 Y140.812 E2.79647
G1 X159.188 Y146.861 E2.86230
G1 X159.188 Y147.115 E2.86426
G1 X152.885 Y140.812 E2.93285
G1 X152.631 Y140.812 E2.93481
G1 X159.188 Y147.369 E3.00617
G1 X159.188 Y147.623 E3.00813
G1 X152.377 Y140.812 E3.08226
G1 X152.122 Y140.812 E3.08421
G1 X159.188 Y147.878 E3.16111
G1 X159.188 Y148.132 E3.16306
G1 X151.868 Y140.812 E3.24272
G1 X151.614 Y140.812 E3.24468
G1 X159.188 Y148.386 E3.32711
G1 X159.188 Y148.640 E3.32906
G1 X151.360 Y140.812 E3.41425
G1 X151.106 Y140.812 E3.41621
G1 X159.188 Y148.894 E3.50417
G1 X159.188 Y149.148 E3.50613
G1 X150.852 Y140.812 E3.59685
G1 X150.598 Y140.812 E3.59881
G1 X159.188 Y149.402 E3.69230
G1 X159.188 Y149.657 E3.69426
G1 X150.343 Y140.812 E3.79051
G1 X150.089 Y140.812 E3.79247
G1 X159.188 Y149.911 E3.89149
G1 X159.188 Y150.165 E3.89345
G1 X149.835 Y140.812 E3.99524
G1 X149.581 Y140.812 E3.99720
G1 X159.188 Y150.419 E4.10175
G1 X159.188 Y150.673 E4.10371
G1 X149.327 Y140.812 E4.21103
G1 X149.073 Y140.812 E4.21299
G1 X159.188 Y150.927 E4.32308
G1 X159.188 Y151.182 E4.32503
G1 X148.818 Y140.812 E4.43789
G1 X148.564 Y140.812 E4.43984
G1 X159.188 Y151.436 E4.55546
G1 X159.188 Y151.690 E4.55742
G1 X148.310 Y140.812 E4.67581
G1 X148.056 Y140.812 E4.67776
G1 X159.188 Y151.944 E4.79892
G1 X159.188 Y152.198 E4.80087
G1 X147.802 Y140.812 E4.92479
G1 X147.548 Y140.812 E4.92675
G1 X159.188 Y152.452 E5.05344
G1 X159.188 Y152.707 E5.05539
G1 X147.293 Y140.812 E5.18484
G1 X147.039 Y140.812 E5.18680
G1 X159.188 Y152.961 E5.31902
G1 X159.188 Y153.215 E5.32097
G1 X146.785 Y140.812 E5.45596
G1 X146.531 Y140.812 E5.45792
G1 X159.188 Y153.469 E5.59567
G1 X159.188 Y153.723 E5.59762
G1 X146.277 Y140.812 E5.73814
G1 X146.023 Y140.812 E5.74010
G1 X159.188 Y153.977 E5.88338
G1 X159.188 Y154.232 E5.88533
G1 X145.768 Y140.812 E6.03138
G1 X145.514 Y140.812 E6.03334
G1 X159.188 Y154.486 E6.18216
G1 X159.188 Y154.740 E6.18411
G1 X145.260 Y140.812 E6.33569
G1 X145.006 Y140.812 E6.33765
G1 X159.188 Y154.994 E6.49200
G1 X159.188 Y155.248 E6.49395
G1 X144.752 Y140.812 E6.65107
G1 X144.498 Y140.812 E6.65303
G1 X159.188 Y155.502 E6.81291
G1 X159.188 Y155.756 E6.81486
G1 X144.244 Y140.812 E6.97751
G1 X143.989 Y140.812 E6.97946
G1 X159.188 Y156.011 E7.14488
G1 X159.188 Y156.265 E7.14683
G1 X143.735 Y140.812 E7.31501
G1 X143.481 Y140.812 E7.31697
G1 X159.188 Y156.519 E7.48791
G1 X159.188 Y156.773 E7.48987
G1 X143.227 Y140.812 E7.66358
G1 X142.973 Y140.812 E7.66554
G1 X159.188 Y157.027 E7.84202
G1 X159.188 Y157.281 E7.84397
G1 X142.719 Y140.812 E8.02322
G1 X142.464 Y140.812 E8.02517
G1 X159.188 Y157.536 E8.20718
G1 X159.188 Y157.790 E8.20914
G1 X142.210 Y140.812 E8.39391
G1 X141.956 Y140.812 E8.39587
G1 X159.188 Y158.044 E8.58341
G1 X159.188 Y158.298 E8.58537
G1 X141.702 Y140.812 E8.77568
G1 X141.448 Y140.812 E8.77763
G1 X159.188 Y158.552 E8.97071
G1 X159.188 Y158.806 E8.97267
G1 X141.194 Y140.812 E9.16851
G1 X140.939 Y140.812 E9.17046
G1 X159.188 Y159.061 E9.36907
G1 X159.188 Y159.188 E9.37005
G1 X159.060 Y159.188 E9.37103
G1 X140.812 Y140.940 E9.56963
G1 X140.812 Y141.194 E9.57159
G1 X158.806 Y159.188 E9.76743
G1 X158.552 Y159.188 E9.76938
G1 X140.812 Y141.448 E9.96246
G1 X140.812 Y141.702 E9.96441
G1 X158.298 Y159.188 E10.15472
G1 X158.044 Y159.188 E10.15668
G1 X140.812 Y141.956 E10.34422
G1 X140.812 Y142.210 E10.34618
G1 X157.790 Y159.188 E10.53095
G1 X157.535 Y159.188 E10.53291
G1 X140.812 Y142.465 E10.71492
G1 X140.812 Y142.719 E10.71687
G1 X157.281 Y159.188 E10.89612
G1 X157.027 Y159.188 E10.89807
G1 X140.812 Y142.973 E11.07455
G1 X140.812 Y143.227 E11.07650
G1 X156.773 Y159.188 E11.25021
G1 X156.519 Y159.188 E11.25217
G1 X140.812 Y143.481 E11.42311
G1 X140.812 Y143.735 E11.42507
G1 X156.265 Y159.188 E11.59325
G1 X156.011 Y159.188 E11.59521
G1 X140.812 Y143.989 E11.76062
G1 X140.812 Y144.244 E11.76257
G1 X155.756 Y159.188 E11.92522
M73 Q3 S31
G1 X155.502 Y159.188 E11.92717
G1 X140.812 Y144.498 E12.08705
M73 P3 R30
G1 X140.812 Y144.752 E12.08901
G1 X155.248 Y159.188 E12.24612
G1 X154.994 Y159.188 E12.24808
G1 X140.812 Y145.006 E12.40243
G1 X140.812 Y145.260 E12.40438
G1 X154.740 Y159.188 E12.55596
G1 X154.486 Y159.188 E12.55792
G1 X140.812 Y145.514 E12.70673
G1 X140.812 Y145.769 E12.70869
G1 X154.231 Y159.188 E12.85474
G1 X153.977 Y159.188 E12.85669
G1 X140.812 Y146.023 E12.99998
G1 X140.812 Y146.277 E13.00193
G1 X153.723 Y159.188 E13.14245
G1 X153.469 Y159.188 E13.14440
G1 X140.812 Y146.531 E13.28215
G1 X140.812 Y146.785 E13.28411
G1 X153.215 Y159.188 E13.41909
G1 X152.961 Y159.188 E13.42105
G1 X140.812 Y147.039 E13.55327
G1 X140.812 Y147.294 E13.55522
G1 X152.706 Y159.188 E13.68468
G1 X152.452 Y159.188 E13.68663
G1 X140.812 Y147.548 E13.81332
G1 X140.812 Y147.802 E13.81527
G1 X152.198 Y159.188 E13.93919
G1 X151.944 Y159.188 E13.94115
G1 X140.812 Y148.056 E14.06230
G1 X140.812 Y148.310 E14.06426
G1 X151.690 Y159.188 E14.18264
G1 X151.436 Y159.188 E14.18460
G1 X140.812 Y148.564 E14.30022
G1 X140.812 Y148.819 E14.30217
G1 X151.181 Y159.188 E14.41503
G1 X150.927 Y159.188 E14.41698
G1 X140.812 Y149.073 E14.52707
G1 X140.812 Y149.327 E14.52903
G1 X150.673 Y159.188 E14.63635
G1 X150.419 Y159.188 E14.63831
G1 X140.812 Y149.581 E14.74286
G1 X140.812 Y149.835 E14.74482
G1 X150.165 Y159.188 E14.84661
G1 X149.911 Y159.188 E14.84856
G1 X140.812 Y150.089 E14.94759
G1 X140.812 Y150.343 E14.94954
G1 X149.657 Y159.188 E15.04580
G1 X149.402 Y159.188 E15.04775
G1 X140.812 Y150.598 E15.14124
G1 X140.812 Y150.852 E15.14320
G1 X149.148 Y159.188 E15.23392
G1 X148.894 Y159.188 E15.23588
G1 X140.812 Y151.106 E15.32384
G1 X140.812 Y151.360 E15.32580
G1 X148.640 Y159.188 E15.41099
G1 X148.386 Y159.188 E15.41294
G1 X140.812 Y151.614 E15.49537
G1 X140.812 Y151.868 E15.49732
G1 X148.132 Y159.188 E15.57698
G1 X147.877 Y159.188 E15.57894
G1 X140.812 Y152.123 E15.65583
G1 X140.812 Y152.377 E15.65779
G1 X147.623 Y159.188 E15.73192
G1 X147.369 Y159.188 E15.73387
G1 X140.812 Y152.631 E15.80523
G1 X140.812 Y152.885 E15.80719
G1 X147.115 Y159.188 E15.87578
G1 X146.861 Y159.188 E15.87774
G1 X140.812 Y153.139 E15.94357
G1 X140.812 Y153.393 E15.94552
G1 X146.607 Y159.188 E16.00859
G1 X146.352 Y159.188 E16.01054
G1 X140.812 Y153.648 E16.07084
G1 X140.812 Y153.902 E16.07280
G1 X146.098 Y159.188 E16.13033
G1 X145.844 Y159.188 E16.13228
G1 X140.812 Y154.156 E16.18704
G1 X140.812 Y154.410 E16.18900
G1 X145.590 Y159.188 E16.24100
G1 X145.336 Y159.188 E16.24295
G1 X140.812 Y154.664 E16.29219
G1 X140.812 Y154.918 E16.29414
G1 X145.082 Y159.188 E16.34061
G1 X144.827 Y159.188 E16.34256
G1 X140.812 Y155.173 E16.38626
G1 X140.812 Y155.427 E16.38822
G1 X144.573 Y159.188 E16.42915
G1 X144.319 Y159.188 E16.43111
G1 X140.812 Y155.681 E16.46927
G1 X140.812 Y155.935 E16.47123
G1 X144.065 Y159.188 E16.50663
G1 X143.811 Y159.188 E16.50858
G1 X140.812 Y156.189 E16.54122
G1 X140.812 Y156.443 E16.54318
G1 X143.557 Y159.188 E16.57304
G1 X143.303 Y159.188 E16.57500
G1 X140.812 Y156.697 E16.60210
G1 X140.812 Y156.952 E16.60406
G1 X143.048 Y159.188 E16.62839
G1 X142.794 Y159.188 E16.63035
G1 X140.812 Y157.206 E16.65192
G1 X140.812 Y157.460 E16.65387
G1 X142.540 Y159.188 E16.67268
G1 X142.286 Y159.188 E16.67463
G1 X140.812 Y157.714 E16.69067
G1 X140.812 Y157.968 E16.69262
G1 X142.032 Y159.188 E16.70590
G1 X141.778 Y159.188 E16.70785
G1 X140.812 Y158.222 E16.71836
G1 X140.812 Y158.477 E16.72031
G1 X141.523 Y159.188 E16.72805
G1 X141.269 Y159.188 E16.73001
G1 X140.812 Y158.731 E16.73498
G1 X140.812 Y158.985 E16.73693
G1 X141.095 Y159.268 E16.74001
G1 Z0.200 F8400.000
G1 X150.000 Y159.346
G1 F4800.000
G1 X140.654 Y159.346 E16.91153
G1 X140.654 Y140.654 E17.25457
G1 X159.346 Y140.654 E17.59760
G1 X159.346 Y159.346 E17.94064
G1 X150.060 Y159.346 E18.11106
G1 X150.000 Y159.775 F8400.000
G1 F2400.000
G1 X140.225 Y159.775 E18.29044
G1 X140.225 Y140.225 E18.64920
G1 X159.775 Y140.225 E19.00797
G1 X159.775 Y159.775 E19.36673
G1 X150.060 Y159.775 E19.54501
G1 X149.689 Y159.524 F8400.000
G1 X140.782 Y141.663
G1 F1200.000
G1 X141.470 Y140.975 E19.56317
G1 X142.086 Y140.975 E19.57465
G1 X140.975 Y142.086 E19.60397
G1 X140.975 Y142.702 E19.61546
G1 X142.702 Y140.975 E19.66102
G1 X143.318 Y140.975 E19.67250
G1 X140.975 Y143.318 E19.73431
G1 X140.975 Y143.934 E19.74580
G1 X143.934 Y140.975 E19.82385
G1 X144.550 Y140.975 E19.83534
G1 X140.975 Y144.550 E19.92964
G1 X140.975 Y145.166 E19.94113
G1 X145.166 Y140.975 E20.05168
G1 X145.782 Y140.975 E20.06316
G1 X140.975 Y145.782 E20.18996
G1 X140.975 Y146.398 E20.20145
G1 X146.398 Y140.975 E20.34449
G1 X147.014 Y140.975 E20.35598
G1 X140.975 Y147.014 E20.51526
G1 X140.975 Y147.630 E20.52675
G1 X147.630 Y140.975 E20.70229
G1 X148.246 Y140.975 E20.71377
G1 X140.975 Y148.246 E20.90556
G1 X140.975 Y148.862 E20.91704
G1 X148.862 Y140.975 E21.12507
G1 X149.478 Y140.975 E21.13656
G1 X140.975 Y149.478 E21.36084
G1 X140.975 Y150.094 E21.37232
G1 X150.094 Y140.975 E21.61285
G1 X150.710 Y140.975 E21.62433
G1 X140.975 Y150.710 E21.88110
G1 X140.975 Y151.326 E21.89259
G1 X151.326 Y140.975 E22.16561
G1 X151.942 Y140.975 E22.17710
G1 X140.975 Y151.942 E22.46636
G1 X140.975 Y152.557 E22.47785
G1 X152.557 Y140.975 E22.78336
G1 X153.173 Y140.975 E22.79484
G1 X140.975 Y153.173 E23.11660
G1 X140.975 Y153.789 E23.12809
G1 X153.789 Y140.975 E23.46609
G1 X154.405 Y140.975 E23.47758
G1 X140.975 Y154.405 E23.83183
G1 X140.975 Y155.021 E23.84332
G1 X155.021 Y140.975 E24.21382
G1 X155.637 Y140.975 E24.22530
G1 X140.975 Y155.637 E24.61205
G1 X140.975 Y156.253 E24.62354
G1 X156.253 Y140.975 E25.02653
G1 X156.869 Y140.975 E25.03801
G1 X140.975 Y156.869 E25.45725
G1 X140.975 Y157.485 E25.46874
G1 X157.485 Y140.975 E25.90422
G1 X158.101 Y140.975 E25.91571
G1 X140.975 Y158.101 E26.36744
G1 X140.975 Y158.717 E26.37893
G1 X158.717 Y140.975 E26.84691
G1 X159.025 Y140.975 E26.85266
G1 X159.025 Y141.283 E26.85840
G1 X141.283 Y159.025 E27.32638
G1 X141.899 Y159.025 E27.33787
G1 X159.025 Y141.899 E27.78960
G1 X159.025 Y142.515 E27.80109
G1 X142.515 Y159.025 E28.23658
G1 X143.131 Y159.025 E28.24806
G1 X159.025 Y143.131 E28.66730
G1 X159.025 Y143.747 E28.67879
G1 X143.747 Y159.025 E29.08179
G1 X144.363 Y159.025 E29.09327
G1 X159.025 Y144.363 E29.48002
G1 X159.025 Y144.979 E29.49151
G1 X144.979 Y159.025 E29.86201
G1 X145.595 Y159.025 E29.87350
